X:1
T:Title
%%score { ( 1 3 ) | ( 2 4 ) }
L:1/8
M:6/8
K:Ab
V:1 treble nm="Grand Piano"
V:3 treble 
V:2 bass 
V:4 bass 
V:1
 z3 z2[Q:1/4=90] [Ec] | [DB]2 [CA] [CE]>[CF][CA] | [DA]2 G G3 | d>cB F2 G |[M:5/8] [A,F]3 [CE]2 | %5
[M:1/8] [Ec] |[M:3/4] [DB]2 [CA][CE]- [CE]/[CF]/[CA] | [DA]2 G G3 | d>c B c2 A | B3 [CA]3 | %10
 [Gd]>[Fd] [Ed] [Fd]2 [Gd] | [Fd]3 [Ec]3 | c>c c c2 A | c4 z2 | [Ec]2 [Ec][EA]- [EA]/[DG]/[CA] | %15
 BA F [CE]3 | c>B A c2 A | B3 [CA]3 |] %18
V:2
 z3 z2 [A,,A,] | [A,,G,]2 [A,,A,] [A,,A,]>[A,,A,][A,,E,] | [B,,E,]2 [E,B,D] [E,B,D]3 | %3
 [E,G,E]>[E,A,E][E,G,D] [E,B,D]2 [E,B,D] |[M:5/8] z2 _C [A,,A,]2 |[M:1/8] [A,,A,] | %6
[M:3/4] [A,,G,]2 [A,,A,][A,,A,]- [A,,A,]/[A,,A,]/[A,,E,] | [B,,E,]2 [E,B,D] [E,B,D]3 | %8
 [E,G,E]>[E,A,E] [E,G,D] [E,A,E]2 [E,A,C] | [E,G,D]3 [A,,A,]3 | %10
 [E,B,]>[E,A,] [E,G,] [E,A,]2 [E,B,] | [A,,A,]3 [A,,A,]3 | [A,EA]>[A,EG] [A,EF] [A,E]2 [A,CE] | %13
 [E,E]3 [E,G,D]3 | [A,,A,]2 [A,,A,][C,A,]- [C,A,]/[B,,E,]/[A,,E,] | [D,F,D]2 [D,A,D] [A,,A,]3 | %16
 [E,A,E]>[E,G,D] [E,A,C] [E,A,E]2 [E,A,C] | [E,G,D]3 [A,,A,]3 |] %18
V:3
 x6 | x6 | x6 | x6 |[M:5/8] D2 z z2 |[M:1/8] x |[M:3/4] x6 | x6 | x6 | x6 | x6 | x6 | x6 | %13
 z2 F, B3 | x6 | x6 | x6 | x6 |] %18
V:4
 x6 | x6 | x6 | x6 |[M:5/8] A,,3 z2 |[M:1/8] x |[M:3/4] x6 | x6 | x6 | x6 | x6 | x6 | x6 | %13
 A,2 z2 z2 | x6 | x6 | x6 | x6 |] %18

